X:98
T:Polska efter Pelle Schenell
T:(SvL Hälsingland 98)
R:Polska
S:Pelle Schenell
O:Gnarp, Hälsingland
B:Svenska Låtar Hälsingland
N:SvL: Polskan spelades mycket av Majström i Bergsjö.
Z:Till abc Jonas Brunskog
M:3/4
L:1/8
K:C
ve2 dd/B/ cc/A/|dd/B/ cc/A/ (BG)|e2 dd/B/ cc/A/|dd/B/ cc/A/ (BG)|G(A/B/) cA/c/ BG/B/|AA/^F/ G z:|
|:((3GAG) [fB]2 [ce]2|{/e}d>c (TBA/B/) c2|a>g fe ((3def)|g2 G>A Gz|
((3GAG) [fB]2 [ce]2|{/e}d>c (TBA/B/) c2|a>(g f)e dc|(TBA/B/) c2 z2:|

